icons/aws-glacier.svg

<svg xmlns="http://www.w3.org/2000/svg" viewBox="0 0 256 309.015">
  <path fill="#8c3123" d="m128.004 229.29 107.363 26.04.089-.174.017-201.297-.097-.173-107.372 25.996V229.29"/>
  <path fill="#e05243" d="M235.367 53.686 256 64v181.024l-20.633 10.306V53.686M128.004 229.29 20.633 255.274l-.024-.055-.006-201.488.03-.045 107.371 25.996V229.29"/>
  <path fill="#8c3123" d="M20.633 53.686 0 64v181.024l20.633 10.25V53.686M128.004 309.015l.445-.56L128.086.074 128.004 0 81.173 23.413v262.193l46.831 23.409"/>
  <path fill="#e05243" d="M128.004 309.015V0l46.823 23.413v262.193l-46.823 23.409"/>
</svg>

<?xml version="1.0" encoding="UTF-8" standalone="no"?>
<svg width="256px" height="309px" viewBox="0 0 256 309" version="1.1" xmlns="http://www.w3.org/2000/svg" xmlns:xlink="http://www.w3.org/1999/xlink" preserveAspectRatio="xMidYMid">
	<g>
		<path d="M128.004,229.29 L235.367,255.33 L235.456,255.156 L235.473,53.859 L235.376,53.686 L128.004,79.682 L128.004,229.29" fill="#8C3123"></path>
		<path d="M235.367,53.686 L256,64 L256,245.024 L235.367,255.33 L235.367,53.686" fill="#E05243"></path>
		<path d="M128.004,229.29 L20.633,255.274 L20.609,255.219 L20.603,53.731 L20.633,53.686 L128.004,79.682 L128.004,229.29" fill="#E05243"></path>
		<path d="M20.633,53.686 L0,64 L0,245.024 L20.633,255.274 L20.633,53.686" fill="#8C3123"></path>
		<path d="M128.004,309.015 L128.449,308.455 L128.086,0.074 L128.004,0 L81.173,23.413 L81.173,285.606 L128.004,309.015" fill="#8C3123"></path>
		<path d="M128.004,309.015 L128.004,0 L174.827,23.413 L174.827,285.606 L128.004,309.015" fill="#E05243"></path>
	</g>
</svg>
